!!!!SEGMENT: pl-kk--kk-i-636--002-010_anonim--in-parasceve-responsorium-7mum.krn
!!!cenid: 18xx:4544
!!!COM: Anonim
!!!COM-rismID: pe30004985
!!!CDT:
!!!CNT:
!!!OPR: In Parasceve
!!!OTL: Responsorium 7mum
!!!OMV: 010
!!!PDT:
!!!AGN: Sacred
!!!YEC: Copyright 2022 Narodowy Instytut Fryderyka Chopina (https://polishscores.org)
!!!YEM: License CC-BY-4.0 (https://creativecommons.org/licenses/by/4.0)
!!!SMS-siglum: PL-Kk
!!!SMS-shelfmark: Kk.I.636
!!!SMS-variant:
!!!SMS-altvar:
!!!SMS-shelfwork: 002-010 M
!!!NIFC-rismSourceID: 1001216440
!!!NIFC-rismChildID: 1001216925
!!!NIFC-islandoraID: pl-kk:40786
!!!URL-pdf-islandora: https://repozytorium.nifc.pl/islandora/object/pl-kk%3A40786/datastream/PDF/view
!!!URL-scan: https://polish.musicsources.pl/pl/lokalizacje/galeria/rekopisy/7271/1 @EN{Scan on Polish Music Sources Website} @PL{Skany w portalu Dziedzictwo Muzyki Polskiej w otwartym dostępie}
!!!IIIF:
!!!ONB-nifc: UWAGA: Lamentacje i Responsoria In Parasceve na skanach: S – 8-14, A – 31-37,T – 53-60, B – 78-86. Każda Lamentacja i Responsorium to oddzielne pliki.
!!!AIN: 1 alto 1 bass 1 soprn 1 tenor
!!!key: B-
**kern	**text	**kern	**text	**kern	**text	**kern	**text
*part4	*part4	*part3	*part3	*part2	*part2	*part1	*part1
*staff4	*staff4	*staff3	*staff3	*staff2	*staff2	*staff1	*staff1
*ICvox	*	*ICvox	*	*ICvox	*	*ICvox	*
*Ibass	*	*Itenor	*	*Ialto	*	*Isoprn	*
*I"Basso.	*	*I"Tenore.	*	*I"Alto.	*	*I"Soprano.	*
*I'B	*	*I'T	*	*I'A	*	*I'S	*
*clefF4	*	*clefC4	*	*clefC3	*	*clefC1	*
*k[b-e-]	*	*k[b-e-]	*	*k[b-e-]	*	*k[b-e-]	*
*B-:	*	*B-:	*	*B-:	*	*B-:	*
*M4/4	*	*M4/4	*	*M4/4	*	*M4/4	*
*met(c)	*	*met(c)	*	*met(c)	*	*met(c)	*
*all\right	*	*all\right	*	*all\right	*	*all\right	*
=1	=1	=1	=1	=1	=1	=1	=1
*2\right	*	*2\right	*	*2\right	*	*2\right	*
!!LO:TX:t=P:problem:all\right
4BB-/	Tra-	4d\	Tra-	4f\	Tra-	4b-\	Tra-
4BB-/	-di-	4d\	-di-	4f\	-di-	4b-\	-di-
4BB-/	-de-	4d\	-de-	4f\	-de-	4b-\	-de-
4B-\	-runt	4d\	-runt	4f\	-runt	4b-\	-runt
!	!	!LO:LB:g=original	!	!	!	!LO:LB:g=original	!
=2	=2	=2	=2	=2	=2	=2	=2
2B-\	me,	2d\	me,	2f\	me	2b-\	me
2r	.	2r	.	2r	.	2r	.
!LO:LB:g=original	!	!	!	!LO:LB:g=original	!	!	!
=3	=3	=3	=3	=3	=3	=3	=3
4E-\	in	4e-\	in	4g\	in	4b-\	in
8E-\	ma-	8e-\	ma-	8g\	ma-	8b-\	ma-
8E-\	-nus	8e-\	-nus	8g\	-nus	8b-\	-nus
4E-\	i-	4e-\	im-	4g\	im-	4b-\	im-
4E-\	-ni-	4e-\	-pi-	4g\	-pi-	4b-\	-pi-
=4	=4	=4	=4	=4	=4	=4	=4
4E-\	-quo-	4e-\	-o-	4g\	-o-	4b-\	-o-
4E-\	-rum,	4e-\	-rum,	4g\	-rum,	4b-\	-rum
2r	.	2r	.	2r	.	2r	.
=5	=5	=5	=5	=5	=5	=5	=5
4BB-/	et	4f\	et	4b-\	et	4dd\	et
4BB-/	in-	4f\	in-	4b-\	in-	4dd\	in-
4BB-/	-ter	4f\	-ter	4b-\	-ter	4dd\	-ter
4BB-/	i-	4f\	i-	4b-\	i-	4dd\	i-
!	!	!LO:LB:g=original	!	!	!	!LO:LB:g=original	!
=6	=6	=6	=6	=6	=6	=6	=6
4BB-/	-ni-	4f\	-ni-	4b-\	-ni-	4dd\	-ni-
4BB-/	-quos	4f\	-quos	4b-\	-quos	4dd\	-quos
4r	.	4r	.	4r	.	4r	.
8D\	pro-	8f\	pro-	8b-\	pro-	8b-\	pro-
8D\	-je-	8f\	-ie-	8b-\	-je-	8b-\	-je-
!	!	!	!	!LO:LB:g=original	!	!	!
=7	=7	=7	=7	=7	=7	=7	=7
8F\	-ce-	8f\	-ce-	8a\	-ce-	8cc\	-ce-
8F\	-runt,	8f\	-runt,	8a\	-runt,	8cc\	-runt
4r	.	4r	.	4r	.	4r	.
!LO:LB:g=original	!	!	!	!	!	!	!
8F\	et	8f\	et	8a\	et	8cc\	et
8F\	non	8f\	non	8a\	non	8cc\	non
8F\	pe-	8f\	pe-	8a\	pe-	8cc\	pe-
8F\	-per-	8f\	-per-	8a\	-per-	8cc\	-per-
=8	=8	=8	=8	=8	=8	=8	=8
4E-\	-ce-	4e-\	-ce-	4g\	-ce-	4ee-\	-ce-
4E-\	-runt,	4e-\	-runt	4g\	-runt	4ee-\	-runt,
4r	.	4r	.	4r	.	4r	.
8C/	pe-	8c\	pe-	8g\	pe-	8ee-\	pe-
8C/	-per-	8c\	-per-	8g\	-per-	8ee-\	-per-
!	!	!LO:LB:g=original	!	!	!	!LO:LB:g=original	!
=9	=9	=9	=9	=9	=9	=9	=9
8G\	-ce-	8B-\	-ce-	8g\	-ce-	8dd\	-ce-
8G\	-runt	8B-\	-runt	8g\	-runt	8dd\	-runt
4r	.	4r	.	4r	.	4r	.
!	!	!	!	!LO:LB:g=original	!	!	!
8r	.	8r	.	8r	.	8r	.
8G\	a-	8B-\	a-	8b-\	a-	8dd\	a-
8G\	-ni-	8B-\	-ni-	8b-\	-ni-	8dd\	-ni-
8G\	-mae	8B-\	-mae	8b-\	-mae	8dd\	-mae
=10	=10	=10	=10	=10	=10	=10	=10
1E-	me-	1e-	me-	1b-	me-	1gg	me-
=11	=11	=11	=11	=11	=11	=11	=11
2.E-\	-ae,	2.e-\	-ae,	2.b-\	-ae,	2.gg\	-ae,
4r	.	4ryy	.	4ryy	.	4ryy	.
!LO:TX:b:rj:t=Volti Subitto&colon;:mod=	!	!	!	!	!	!	!
!LO:PB:g=original	!	!	!	!	!	!	!
=12	=12	=12	=12	=12	=12	=12	=12
2r	.	2.ryy	.	2.ryy	.	2.ryy	.
4r	.	.	.	.	.	.	.
8E-\	con-	8e-\	con-	8b-\	con-	8gg\	con-
8E-\	-gre-	8e-\	-gre-	8b-\	-gre-	8gg\	-gre-
=13	=13	=13	=13	=13	=13	=13	=13
4e-\	-ga-	4e-\	-ga-	4b-\	-ga-	4gg\	-ga-
4d\	-ti	4f\	-ti	4b-\	-ti	4ff\	-ti
4c\	sunt	4f\	sunt	4a\	sunt	4ee-\	sunt
!LO:SIC:v:s=4B-\	!	!	!	!	!	!	!
4A\	ad-	4f\	ad-	4b-\	ad-	4dd\	ad-
!	!	!LO:LB:g=original	!	!LO:LB:g=original	!	!LO:LB:g=original	!
=14	=14	=14	=14	=14	=14	=14	=14
4A\	-ver-	4f\	-ver-	4cc\	-ver-	4cc\	-ver-
4G\	-sum	4A\	-sum	4f\	-sum	4cc\	-sum
4F\	me,	4B-\	me	4f\	me	4dd\	me,
4E-\	et	4c\	et	4f\	et	4ee-\	et
!LO:LB:g=original	!	!	!	!	!	!	!
=15	=15	=15	=15	=15	=15	=15	=15
2D\	si-	2B-\	si-	2f\	si-	2ff\	si-
4D\	-cut	4B-\	-cut	4f\	-cut	4b-\	-cut
4D\	gi-	4B-\	Gi-	4f\	Gi-	4b-\	Gi-
=16	=16	=16	=16	=16	=16	=16	=16
2BB-/	-gan-	2B-\	-gan-	2f\	-gan-	2dd\	-gan-
2BB-/	-tes	2B-\	-tes	2d\	-tes	2f/	-tes
=17	=17	=17	=17	=17	=17	=17	=17
2.C/	ste-	2.A\	ste-	2.c\	ste-	2.f/	ste-
4C/	-te-	4A\	-te-	4c\	-te-	4f/	-te-
!	!	!	!	!LO:LB:g=original	!	!LO:PB:g=original	!
=18	=18	=18	=18	=18	=18	=18	=18
2C/	-runt	2G/	-runt	2c\	-runt	4f/	-runt
.	.	.	.	.	.	4en/	.
4C/	con-	4G/	con-	4c\	con-	4e/	con-
4C/	-tra	4G/	-tra	4c\	-tra	4e/	-tra
!	!	!LO:LB:g=original	!	!	!	!	!
=19	=19	=19	=19	=19	=19	=19	=19
2F\	me,	2A\	me,	2c\	me,	2f/	me,
2r	.	2r	.	2r	.	2r	.
!LO:LB:g=original	!	!	!	!	!	!	!
=20	=20	=20	=20	=20	=20	=20	=20
!LO:TX:a:t=1	!	!	!	!	!	!	!
1r	.	1ryy	.	1ryy	.	1ryy	.
=21	=21	=21	=21	=21	=21	=21	=21
2F\	a-	2.c\	a-	2f\	a-	2a-X\	a-
2F\	-li-	.	.	2f\	-li-	2a-\	-li-
.	.	4c\	-li-	.	.	.	.
=22	=22	=22	=22	=22	=22	=22	=22
4F\	-e-	4c\	-e-	4f\	-e-	4a-X\	-e-
4F\	-ni,	4c\	-ni	4f\	-ni	4a-\	-ni,
2r	.	2r	.	2r	.	2r	.
!	!	!	!	!	!	!LO:LB:g=original	!
=23	=23	=23	=23	=23	=23	=23	=23
4F\	in-	4A-X\	in-	4f\	in-	4b-\	in-
8F\	-sur-	8A-\	-sur-	8f\	-sur-	8b-\	-sur-
8F\	-re-	8A-\	-re-	8f\	-re-	8b-\	-re-
!	!	!	!	!LO:LB:g=original	!	!	!
4F\	-xe-	4A-\	-xe-	4f\	-xe-	4b-\	-xe-
4F\	-runt	4A-\	-runt	4f\	-runt	4b-\	-runt
!LO:LB:g=original	!	!	!	!	!	!	!
=24	=24	=24	=24	=24	=24	=24	=24
2D\	me,	2A-X\	me,	2f\	me	2b-\	me
2r	.	2r	.	2r	.	2r	.
!	!	!LO:LB:g=original	!	!	!	!	!
=25	=25	=25	=25	=25	=25	=25	=25
2E-\	et	2G/	et	2e-\	et	2b-\	et
4E-\	for-	4G/	for-	4e-\	for-	4b-\	for-
4E-\	-tes	4G/	-tes	4e-\	-tes	4b-\	-tes
=26	=26	=26	=26	=26	=26	=26	=26
4G\	que-	4B-\	que-	4e-\	que-	4b-\	que-
4G\	-si-	4B-\	-si-	4e-\	-si-	4cc\	-si-
4E-\	-e-	4G/	-e-	4e-\	-e-	4dd\	-e-
4E-\	-runt	4G/	-runt	4e-\	-runt	4ee-\	-runt
!	!	!	!	!	!	!LO:LB:g=original	!
=27	=27	=27	=27	=27	=27	=27	=27
2BB-/	a-	2.B-\	a-	2g\	a-	2.ee-\	a-
4BB-/	-ni-	.	.	4g\	-ni-	.	.
4BB-/	-mam	8B-\	-ni-	4e-\	-mam	8g\	-ni-
.	.	8B-\	-mam	.	.	8g\	-mam
!LO:LB:g=original	!	!	!	!LO:LB:g=original	!	!	!
=28	=28	=28	=28	=28	=28	=28	=28
2BB-/	me-	2B-\	me-	2e-\	me-	2g/	me-
2BBn/	.	2A\	.	2d\	.	2f/	.
!	!	!LO:PB:g=original	!	!	!	!	!
=29	=29	=29	=29	=29	=29	=29	=29
2C/	-am,	2G/	-am,	2e-\	-am.	2e-/	-am,
2r	.	2ryy	.	2ryy	.	2ryy	.
=30	=30	=30	=30	=30	=30	=30	=30
2r	.	2ryy	.	2ryy	.	2ryy	.
4r	.	4r	.	4r	.	4r	.
4c\	et	4c\	et	4g\	et	4ee-\	et
=31	=31	=31	=31	=31	=31	=31	=31
4c\	si-	4c\	si-	2g\	si-	4ee-\	si-
4G\	.	4Bn\	.	.	.	4dd\	.
4c\	-cut	4c\	-cut	4g\	-cut	4ee-\	-cut
4G\	Gi-	4B\	Gi-	4g\	gi-	4dd\	Gi-
!LO:LB:g=original	!	!	!	!	!	!LO:LB:g=original	!
=32	=32	=32	=32	=32	=32	=32	=32
4c\	-gan-	4c\	-gan-	4g\	-gan-	4ee-\	-gan-
4B-\	.	4d\	.	4b-\	.	4ff\	.
4e-\	-tes	4e-\	-tes	4b-\	-tes	4gg\	-tes
4B-\	ste-	4d\	ste-	4b-\	ste-	4ff\	ste-
=33	=33	=33	=33	=33	=33	=33	=33
2E-\	-te-	2e-\	-te-	2b-\	-te-	2gg\	-te-
2E-\	-runt	2e-\	-runt	2g\	-runt	2ee-\	-runt
!	!	!LO:LB:g=original	!	!LO:LB:g=original	!	!	!
=34	=34	=34	=34	=34	=34	=34	=34
2r	.	2r	.	2r	.	2r	.
4G\	von-	4e-\	con-	4b-\	con-	4ee-\	con-
4G\	-tra	4e-\	-tra	4b-\	-tra	4ee-\	-tra
=35	=35	=35	=35	=35	=35	=35	=35
1F	me,	1f	me,	1b-	me	1dd	me,
!	!	!	!	!	!	!LO:LB:g=original	!
=36	=36	=36	=36	=36	=36	=36	=36
2.F\	con-	2.c\	con-	2.a\	con-	2.ff\	con-
4F\	-tra	4e-\	-tra	4f\	-tra	4a\	-tra
!LO:LB:g=original	!	!	!	!	!	!	!
=37	=37	=37	=37	=37	=37	=37	=37
2BB-/	me	2d\	me,	2f\	me,	2b-\	me,
2r	.	2r	.	2r	.	2r	.
=38	=38	=38	=38	=38	=38	=38	=38
1C	ste-	4A\	ste-	1e-	ste-	2.f/	ste-
.	.	4B-\	.	.	.	.	.
.	.	4c\	.	.	.	.	.
.	.	4F/	.	.	.	8g/L	.
.	.	.	.	.	.	8a/J	.
=39	=39	=39	=39	=39	=39	=39	=39
4BB-/	-te-	4F/	-te-	4d\	-te-	4b-\	-te-
4BB-/	-runt	4F/	-runt,	4d\	-runt,	4f/	-runt,
4r	.	4r	.	4r	.	4r	.
4BB-/	ste-	4B-\	ste-	4d\	ste-	4f/	ste-
!	!	!LO:LB:g=original	!	!LO:LB:g=original	!	!LO:LB:g=original	!
=40	=40	=40	=40	=40	=40	=40	=40
4C/	-te-	4A\	-te-	4.e-\	-te-	4.f/	-te-
4C/	-runt	4B-\	-runt	.	.	.	.
.	.	.	.	8e-\	-runt	8f/	-runt
4C/	con-	4c\	con-	4e-\	con-	4f/	con-
4C/	-tra	4F/	-tra	4e-\	-tra	8g\L	-tra
.	.	.	.	.	.	8a\J	.
=41	=41	=41	=41	=41	=41	=41	=41
4BB-/	me.	4F/	me.	4d\	me.	4b-\	me.
4r	.	4r	.	4r	.	4r	.
2r	.	2r	.	2r	.	2r	.
==	==	==	==	==	==	==	==
*-	*-	*-	*-	*-	*-	*-	*-
!!!system-decoration: [(s1,s2,s3,s4)]
!!!RDF**kern: > = above
!!!RDF**kern: < = below
!!!RDF**kern: i = editorial accidental
!!!ENC: Berenika Jozajtis
!!!EED: Katarzyna Serwa
!!!END: 2023-11-17
!!!EEV: 2024-06-04
